src/assets/images/mono.svg

<?xml version="1.0" encoding="UTF-8"?>
<svg width="367px" height="372px" viewBox="0 0 367 372" version="1.1" xmlns="http://www.w3.org/2000/svg" xmlns:xlink="http://www.w3.org/1999/xlink">
    <!-- Generator: Sketch 52 (66869) - http://www.bohemiancoding.com/sketch -->
    <title>logo</title>
    <desc>Created with Sketch.</desc>
    <defs>
        <path d="M126.34998,187.611481 L130.768906,188.390657 C130.272675,189.714729 129.733625,191.020927 129.150886,192.309398 C125.474199,200.442039 120.417648,207.25551 113.728766,212.605888 C105.325595,219.324633 95.4798303,222.762955 84.7813784,222.62293 C77.161057,222.524292 69.8549413,220.518115 62.9026518,216.831478 C54.7172169,212.472313 47.8636561,206.301335 42.1593349,198.508322 C37.0650589,191.568763 33.2822942,183.819568 30.7513736,175.344922 C28.3103277,167.165016 27.1625918,158.856207 27.3765034,150.443655 C27.3986036,149.65718 27.4221588,149.077619 27.4812565,147.755995 C27.4965413,147.414174 27.5069075,147.179861 27.5154553,146.980108 C27.5160738,146.676936 27.5245939,146.379705 27.5397182,146.084723 L27.2682462,145.393806 L29.5107887,132.675715 L30.1156907,132.054686 C31.0169388,128.751225 32.2427315,125.504252 33.7723791,122.25121 C37.4397805,114.430314 42.4119718,107.857261 48.9124806,102.677216 C56.8493252,96.3628878 66.0865045,92.955146 76.1717054,92.7312807 C84.1164638,92.5625228 91.7615054,94.45986 99.019219,98.1842896 C106.443908,102.001092 112.849187,107.366976 118.256545,114.065975 C125.364426,122.841215 130.205536,132.942597 132.94484,144.249998 L131.710809,151.248531 C125.235547,145.434269 120.121491,138.355198 116.166798,130.087873 C111.730648,120.798663 109.145769,110.810895 108.280647,100.176019 C107.8229,94.5704061 107.883033,88.9405254 108.44727,83.3736491 C108.715037,80.5970537 108.923949,78.8913736 109.284056,77.2168421 C111.207318,66.7152556 114.468419,57.6104976 119.478751,49.2800529 C123.748972,42.1671918 128.934383,36.1943566 135.234822,31.441368 C142.935994,25.6169391 151.531281,22.1770675 160.902269,21.4845769 C170.452377,20.7681037 179.582895,22.9615046 188.003392,27.8115786 C194.707684,31.6796978 200.417865,36.8953566 205.240452,43.30722 C212.027424,52.3158158 216.515862,62.6451711 218.980756,74.2355399 C220.451733,81.1626843 221.085953,88.2062958 220.89553,95.3455865 C220.787872,99.3543055 220.4284,103.338655 219.807817,107.337897 C218.98244,112.543469 217.747588,117.524557 216.063756,122.287306 C214.970825,125.388119 213.732697,128.355991 212.339642,131.189935 L207.599086,130.354047 C207.305755,126.618684 207.288692,122.832838 207.533998,118.99553 C207.791977,114.859277 208.329446,110.81243 209.156469,106.868324 C211.08217,97.637665 214.345238,88.857105 218.909342,80.5978449 C223.920626,71.5109719 230.136128,63.6321262 237.661361,57.0316067 C244.642548,50.9096971 252.235819,46.3338758 260.598757,43.4505091 C267.448289,41.0849412 274.464066,40.0743327 281.576981,40.5125647 L281.711796,40.5215095 C285.499251,40.7907587 287.580132,41.1614979 291.280831,42.1910276 L291.440173,42.2353561 L291.598448,42.283354 C305.294179,46.4366701 315.456163,55.5840562 321.859146,68.7221961 C325.702325,76.612546 327.734993,85.1513974 328.270444,94.4935963 C328.672385,101.74339 328.076183,109.02265 326.538361,116.342396 C323.823892,129.256241 318.582729,141.136172 310.876642,151.874883 C305.283977,159.671669 298.702247,166.247295 291.051089,171.515799 C286.98814,174.306662 282.804321,176.605224 278.471204,178.380029 L279.82388,170.708621 C282.163625,167.371141 284.782943,164.166885 287.673935,161.097695 C291.175931,157.370079 295.038154,154.023974 299.255721,151.062016 C308.35646,144.697016 318.041818,140.65996 328.552321,139.214772 C335.319275,138.300254 341.928321,138.603644 348.337552,140.257731 C358.727367,142.932427 367.386161,148.715349 373.772079,157.315517 C379.202334,164.630399 382.26352,173.082685 383.288236,182.505595 C383.819673,187.395543 383.753248,192.265692 383.066165,197.077503 L383.032997,197.309783 L382.773877,198.779328 L382.72855,198.996791 C382.540912,199.897021 382.373056,200.8533 382.220097,201.888092 L382.190951,202.085263 L381.920988,203.616302 L381.849406,203.936106 C379.61171,213.933318 375.292976,223.209948 369.048264,231.918956 C364.257189,238.577692 358.627059,244.353189 352.177099,249.159969 C343.275196,255.805933 333.654205,260.16943 323.192234,261.981345 C316.11132,263.208312 309.138101,263.092443 302.309553,261.49495 C291.608931,258.978691 282.672975,253.205898 276.069934,244.453473 C270.885162,237.573092 267.803778,229.626078 266.591328,220.826256 C266.19446,217.97387 266.004251,215.109474 266.015452,212.238272 L271.086548,213.132443 C271.097323,213.158139 271.10812,213.183884 271.118944,213.209687 C274.496686,221.249455 277.234466,227.155968 280.220768,232.632259 C283.462567,238.582717 287.20313,244.202077 291.442791,249.490653 C298.062236,257.749632 303.517648,266.502491 307.79389,275.86184 C311.707806,284.489989 314.387183,293.187245 315.753786,302.091086 C316.91373,309.644455 317.0803,317.042415 316.17471,324.342384 C314.696682,336.337729 310.529419,347.16259 303.512535,356.575759 C296.950635,365.388119 288.454054,372.145006 278.259912,376.882687 C270.666154,380.410581 262.935913,382.525255 254.995355,383.073098 C252.335076,383.264808 249.688916,383.28513 247.089236,383.12879 L246.30208,383.475381 L231.701749,380.900948 L231.440529,380.628916 C227.172275,379.552691 223.169051,378.04917 217.313273,375.55375 C213.369363,373.866431 210.310562,372.439675 203.644635,369.242097 L203.597714,369.21959 C198.957172,366.993566 196.90807,366.024883 194.389711,364.886309 C188.236442,362.111215 182.686877,359.981625 177.301199,358.382144 C173.91834,357.376001 170.183568,356.615233 165.690382,355.981527 C163.274666,355.638775 160.557949,355.522591 156.728459,355.561734 C151.264137,355.627537 146.692356,355.958018 136.482405,356.905711 L136.335297,356.919366 C136.120137,356.939338 136.120137,356.939338 135.927851,356.957164 C124.032273,358.080466 118.336656,358.462045 111.129212,358.375611 C106.406413,358.307529 103.116701,358.089091 99.5059077,357.43349 C99.4826789,357.430942 99.4548349,357.427899 99.4215009,357.42427 C98.4950267,357.323393 97.982229,357.255761 97.1446187,357.087483 L97.0352388,357.065508 C97.0228712,357.063696 97.0092601,357.061704 96.9943191,357.05952 C96.2943193,356.957192 95.9185699,356.896032 95.2987531,356.763764 C94.6670803,356.628965 94.0410263,356.465093 93.409667,356.260491 C93.2887926,356.230897 93.149775,356.196913 92.9828322,356.156131 C92.507476,356.040006 92.2999116,355.989169 92.0301512,355.922577 C91.1170117,355.697161 90.3812706,355.508807 89.6016274,355.296786 C79.3595183,352.479577 70.442877,347.29904 63.1776764,339.780394 C51.0937302,327.272398 44.5685262,312.045129 44.0114124,294.731123 C43.8135215,288.351127 44.5164765,281.979258 46.053802,275.612415 C47.7394587,268.563878 50.3739525,261.795645 53.9216259,255.252978 C59.189839,245.54265 66.0915177,236.858376 74.5625432,229.050641 C80.58342,223.500992 87.2032565,218.593353 94.3950867,214.305518 C99.2573052,211.402788 104.084344,207.908619 109.09726,203.715948 C114.212011,199.429705 118.934028,194.981638 126.34998,187.611481 Z M242.258966,382.650967 L242.248457,382.64843 C242.259493,382.651193 242.271948,382.654241 242.285724,382.657542 C242.276582,382.655307 242.26766,382.653114 242.258966,382.650967 Z M241.552697,382.518652 C241.556168,382.519647 241.567566,382.522557 241.580765,382.525846 C241.571113,382.523389 241.561754,382.52099 241.552697,382.518652 Z M236.951735,381.69649 L236.942966,381.69564 C236.925954,381.694094 236.908331,381.692451 236.890119,381.690709 C236.919441,381.693756 236.940648,381.695724 236.951735,381.69649 Z M99.2484926,357.386113 C99.257707,357.387852 99.2667821,357.389551 99.2757199,357.391211 C99.2663775,357.389447 99.2574361,357.387781 99.2484926,357.386113 Z M29.3523844,134.77523 C29.3417672,134.817427 29.3315624,134.858829 29.3217408,134.899502 C29.3318078,134.85774 29.3419726,134.816648 29.3523844,134.77523 Z" id="path-1"></path>
        <filter x="-2.5%" y="-1.7%" width="105.1%" height="105.0%" filterUnits="objectBoundingBox" id="filter-2">
            <feOffset dx="0" dy="3" in="SourceAlpha" result="shadowOffsetOuter1"></feOffset>
            <feGaussianBlur stdDeviation="2.5" in="shadowOffsetOuter1" result="shadowBlurOuter1"></feGaussianBlur>
            <feColorMatrix values="0 0 0 0 0   0 0 0 0 0   0 0 0 0 0  0 0 0 0.16 0" type="matrix" in="shadowBlurOuter1"></feColorMatrix>
        </filter>
    </defs>
    <g id="banner-monobank.com.ua" stroke="none" stroke-width="1" fill="none" fill-rule="evenodd">
        <g id="banner_monobank" transform="translate(-182.000000, -119.000000)" fill-rule="nonzero">
            <g id="logo" transform="translate(160.000000, 100.000000)">
                <rect id="bounce" x="0" y="0" width="400" height="400"></rect>
                <g id="white">
                    <use fill="black" fill-opacity="1" filter="url(#filter-2)" xlink:href="#path-1"></use>
                    <use fill="#FFFFFF" xlink:href="#path-1"></use>
                </g>
                <path d="M97.5319246,342.509187 C96.1559859,342.167381 94.7728175,341.844139 93.4023068,341.47155 C85.7270489,339.360383 79.0205289,335.547321 73.4796584,329.813158 C63.9206138,319.918668 58.7766157,308.096763 58.3321069,294.282538 C58.1711191,289.092299 58.7703633,283.988497 59.9878632,278.9461 C61.4036273,273.026113 63.6163357,267.433126 66.5126972,262.091616 C71.1374325,253.567341 77.1529693,246.15324 84.2677496,239.595555 C89.6298586,234.653115 95.4725566,230.35088 101.733114,226.618276 C107.592243,223.120394 113.063975,219.082059 118.29429,214.707553 C124.877347,209.190846 131.01091,203.194153 137.091221,197.140458 C142.466336,191.787681 147.775329,186.383568 153.37925,181.281418 C157.595405,177.430354 161.970406,173.777906 166.694688,170.567936 C172.604328,166.559204 178.903519,163.392844 185.939392,161.860103 C191.218723,160.708 196.522325,160.540174 201.864189,161.367028 C207.905334,162.289411 213.743979,163.9339 219.342619,166.401008 C227.909848,170.185079 234.898555,175.920607 240.458226,183.45541 C244.258226,188.628683 247.254922,194.251485 249.938468,200.057127 C252.785776,206.21302 255.286988,212.514203 257.911014,218.769591 C260.870659,225.814198 263.97841,232.781762 267.640866,239.497986 C271.287529,246.191588 275.497742,252.516381 280.265186,258.463317 C286.031291,265.657596 290.910541,273.393798 294.747368,281.791292 C298.012375,288.988932 300.391975,296.451017 301.592462,304.27256 C302.528077,310.365135 302.715393,316.460663 301.954854,322.591407 C300.807459,331.903405 297.66306,340.446679 292.024668,348.010601 C286.804292,355.021349 280.120671,360.210851 272.229682,363.878152 C266.429065,366.572992 260.374368,368.330319 253.97001,368.77223 C251.701811,368.935685 249.426218,368.939132 247.158813,368.761513 C246.842572,368.737492 246.533093,368.742437 246.22565,368.735837 C245.904848,368.849878 245.604236,368.669909 245.290475,368.654261 C245.031114,368.644237 244.782866,368.481436 244.512625,368.600424 L238.795207,367.592289 C238.597988,367.386907 238.320541,367.457014 238.084226,367.383604 L236.879347,367.171152 C232.030093,366.153426 227.474799,364.298789 222.948424,362.3699 C215.281464,359.089752 207.875639,355.248607 200.279385,351.814287 C194.125779,349.039041 187.864171,346.562159 181.386352,344.638327 C176.897697,343.303294 172.314754,342.435684 167.705327,341.785589 C164.019095,341.26257 160.281696,341.186804 156.559834,341.22487 C149.208881,341.313392 141.898128,342.004144 134.585575,342.682675 C126.848404,343.413298 119.113268,344.132377 111.339357,344.039196 C108.178238,343.993626 105.025496,343.878117 101.907448,343.29658 C101.267994,343.175892 100.614057,343.159775 99.9682857,343.030038 C99.1514311,342.838393 98.3121631,342.841176 97.5319246,342.509187 Z M287.439975,56.0051429 C297.505176,59.057478 304.435794,65.6834098 308.979746,75.007045 C312.093786,81.4004154 313.559172,88.2132847 313.964887,95.2916123 C314.302766,101.385916 313.773183,107.418517 312.517669,113.394533 C310.209677,124.374596 305.773817,134.408124 299.238072,143.51592 C294.710701,149.827569 289.339611,155.292149 282.944967,159.695442 C277.250256,163.607172 271.087517,166.448443 264.260769,167.692715 C259.465951,168.565232 254.693096,168.572716 249.946813,167.442215 C241.727939,165.497056 235.262525,160.944889 230.357006,154.120572 C226.177097,148.297073 223.78681,141.725814 222.568219,134.702535 C221.717078,129.791331 221.516503,124.848037 221.833762,119.884959 C222.045976,116.482466 222.485264,113.116044 223.181644,109.794954 C224.817471,101.953773 227.583166,94.5260693 231.452992,87.5231746 C235.564956,80.0670248 240.699653,73.4299947 247.102384,67.8140418 C252.489249,63.0902174 258.470581,59.3480541 265.269712,57.0038538 C270.266398,55.2781884 275.401136,54.4973494 280.692832,54.8233747 C283.594768,55.0296727 284.74032,55.2541024 287.439975,56.0051429 Z M43.5564972,137.343456 C44.2726726,134.224237 45.3815757,131.23378 46.7425875,128.339356 C49.3803579,122.714193 52.9427086,117.791654 57.8268141,113.899663 C63.2848804,109.557381 69.4971087,107.220787 76.472017,107.065957 C82.1351919,106.945663 87.4520246,108.363245 92.4698219,110.938217 C98.2378159,113.903364 103.066362,118.067716 107.125324,123.096206 C113.435238,130.886292 117.371437,139.797259 119.462446,149.569182 C120.554372,154.685515 121.02168,159.866286 120.863245,165.095425 C120.787666,167.633268 120.52135,170.153349 120.130208,172.663323 C119.381194,177.427275 118.081683,182.014808 116.097373,186.40224 C113.450947,192.255997 109.830969,197.370723 104.787224,201.405172 C98.9976872,206.034189 92.3836538,208.383253 84.970462,208.286227 C79.5308254,208.215816 74.4338818,206.717979 69.6361614,204.173877 C63.1872972,200.739525 57.9984949,195.880801 53.7068624,190.017763 C49.5181098,184.311733 46.5024565,178.011095 44.4799532,171.238857 C42.4978114,164.596732 41.5218075,157.790802 41.6984333,150.84293 C41.732936,149.615089 41.7981362,148.39266 41.8473092,147.171374 C41.8170288,146.602634 41.9652949,146.053475 41.9304988,145.487907 C41.9091353,145.250052 41.981666,145.040655 42.0115429,144.803899 C42.0202213,144.507859 42.2049659,144.223026 42.0793426,143.903305 L42.8528329,139.516624 C43.1958376,139.164474 43.1402419,138.694429 43.246253,138.272717 C43.3255917,137.957396 43.3047186,137.604566 43.5564972,137.343456 Z M123.332087,80.0444793 C124.902068,71.3426209 127.522463,63.7067871 131.759793,56.661568 C134.958404,51.333677 138.888167,46.6385937 143.871549,42.8791691 C149.240355,38.8187181 155.214957,36.2815198 161.969669,35.7823584 C168.725739,35.275501 174.997354,36.8654037 180.844668,40.2333619 C185.994383,43.2045498 190.238342,47.2063097 193.799216,51.9406583 C199.486872,59.4900924 203.008535,68.0145242 204.966104,77.2193567 C206.20902,83.0725143 206.73251,88.9892627 206.573145,94.9641475 C206.482152,98.3523075 206.179202,101.730867 205.657297,105.094624 C204.986568,109.324851 203.980879,113.480145 202.55221,117.521179 C199.575336,125.967029 195.203287,133.551894 188.690639,139.791217 C184.641519,143.659831 180.029731,146.63571 174.697361,148.425181 C168.73897,150.421676 162.700149,150.63047 156.625588,149.067378 C151.133134,147.658506 146.320578,144.929278 142.033851,141.237386 C136.440974,136.42644 132.265603,130.532324 129.094308,123.902705 C125.334954,116.030692 123.26761,107.695247 122.560641,99.0045317 C122.17242,94.2503372 122.227534,89.4949627 122.7086,84.7472457 C122.880536,82.9643674 123.073693,81.1733283 123.332087,80.0444793 Z M368.046779,199.793651 L367.868333,200.805666 C366.004126,209.134268 362.369566,216.642856 357.42191,223.542988 C353.533215,228.947578 348.950171,233.690142 343.61164,237.668644 C336.758971,242.784695 329.219693,246.387049 320.751355,247.853685 C315.678434,248.732712 310.617557,248.713215 305.59048,247.537171 C298.171076,245.792494 292.10904,241.914529 287.510267,235.818793 C283.714059,230.781086 281.6359,225.042515 280.782035,218.845327 C280.00899,213.28927 280.277461,207.750222 281.423104,202.262686 C283.934623,190.195678 289.704887,179.841978 298.111426,170.917251 C300.951018,167.894716 304.07447,165.192029 307.461241,162.813505 C314.424885,157.943176 321.995682,154.588403 330.466174,153.423685 C335.281233,152.772955 340.056966,152.92865 344.76462,154.143594 C351.955548,155.994787 357.825936,159.882602 362.270121,165.867761 C366.279296,171.268362 368.323227,177.425432 369.044665,184.059512 C369.442963,187.724392 369.404921,191.395653 368.882691,195.052956 L368.702888,196.072667 C368.446039,197.304946 368.2314,198.544668 368.046779,199.793651 Z" id="black" fill="#000000"></path>
            </g>
        </g>
    </g>
</svg>

<svg width="367" height="372" xmlns="http://www.w3.org/2000/svg" xmlns:xlink="http://www.w3.org/1999/xlink"><defs><filter x="-2.5%" y="-1.7%" width="105.1%" height="105%" filterUnits="objectBoundingBox" id="prefix__a"><feOffset dy="3" in="SourceAlpha" result="shadowOffsetOuter1"/><feGaussianBlur stdDeviation="2.5" in="shadowOffsetOuter1" result="shadowBlurOuter1"/><feColorMatrix values="0 0 0 0 0 0 0 0 0 0 0 0 0 0 0 0 0 0 0.16 0" in="shadowBlurOuter1"/></filter><path d="M126.35 187.611l4.419.78a64.066 64.066 0 01-1.618 3.918c-3.677 8.133-8.733 14.947-15.422 20.297-8.403 6.719-18.25 10.157-28.948 10.017-7.62-.099-14.926-2.105-21.878-5.792-8.186-4.359-15.04-10.53-20.744-18.323-5.094-6.94-8.877-14.688-11.408-23.163-2.44-8.18-3.588-16.489-3.374-24.901.022-.787.045-1.366.104-2.688.016-.342.026-.576.034-.776.001-.303.01-.6.025-.895l-.272-.691 2.243-12.718.605-.621c.9-3.304 2.127-6.55 3.656-9.804 3.668-7.82 8.64-14.394 15.14-19.574 7.937-6.314 17.175-9.722 27.26-9.946 7.944-.168 15.59 1.729 22.847 5.453 7.425 3.817 13.83 9.183 19.238 15.882 7.107 8.775 11.949 18.877 14.688 30.184l-1.234 6.999c-6.475-5.815-11.59-12.894-15.544-21.161-4.436-9.29-7.021-19.277-7.886-29.912a92.253 92.253 0 01.166-16.802c.268-2.777.477-4.483.837-6.157 1.923-10.502 5.184-19.607 10.195-27.937 4.27-7.113 9.455-13.086 15.756-17.839 7.701-5.824 16.296-9.264 25.667-9.956 9.55-.717 18.68 1.477 27.101 6.327 6.705 3.868 12.415 9.083 17.237 15.495 6.787 9.009 11.276 19.338 13.74 30.929a89.792 89.792 0 011.916 21.11 94.554 94.554 0 01-1.088 11.992c-.826 5.205-2.06 10.187-3.744 14.95a81.782 81.782 0 01-3.724 8.902l-4.74-.836a79.856 79.856 0 01-.066-11.358 84.755 84.755 0 011.622-12.128 93.627 93.627 0 019.753-26.27c5.012-9.087 11.227-16.966 18.752-23.566 6.982-6.122 14.575-10.698 22.938-13.581 6.85-2.366 13.865-3.377 20.978-2.938l.135.009c3.787.269 5.868.64 9.569 1.669l.16.044.157.048c13.696 4.154 23.858 13.301 30.261 26.44 3.843 7.89 5.876 16.428 6.411 25.77.402 7.25-.194 14.53-1.732 21.85-2.714 12.913-7.955 24.793-15.661 35.532-5.593 7.797-12.175 14.372-19.826 19.64-4.063 2.792-8.247 5.09-12.58 6.865l1.353-7.671a86.138 86.138 0 017.85-9.611 74.949 74.949 0 0111.582-10.036c9.1-6.365 18.786-10.402 29.296-11.847 6.767-.915 13.376-.611 19.786 1.043 10.39 2.674 19.048 8.457 25.434 17.058 5.43 7.314 8.492 15.767 9.516 25.19.532 4.89.465 9.76-.222 14.572l-.033.232-.26 1.47-.044.217c-.188.9-.356 1.856-.509 2.891l-.029.197-.27 1.531-.072.32c-2.237 9.997-6.556 19.274-12.8 27.983-4.792 6.659-10.422 12.434-16.872 17.241-8.902 6.646-18.523 11.01-28.985 12.821-7.08 1.227-14.054 1.111-20.882-.486-10.701-2.516-19.637-8.29-26.24-17.042-5.185-6.88-8.266-14.827-9.479-23.627a60.542 60.542 0 01-.576-8.588l5.072.894.032.078c3.378 8.04 6.115 13.946 9.102 19.422a114.398 114.398 0 0011.222 16.859c6.62 8.259 12.075 17.011 16.35 26.37 3.915 8.629 6.594 17.326 7.96 26.23 1.16 7.553 1.327 14.951.422 22.251-1.478 11.996-5.646 22.82-12.662 32.234-6.562 8.812-15.059 15.569-25.253 20.307-7.594 3.528-15.324 5.642-23.265 6.19-2.66.192-5.306.212-7.906.056l-.787.346-14.6-2.574-.261-.272c-4.269-1.076-8.272-2.58-14.128-5.075-3.944-1.688-7.002-3.114-13.668-6.312l-.047-.022c-4.64-2.226-6.69-3.195-9.208-4.334-6.154-2.775-11.703-4.904-17.089-6.504-3.383-1.006-7.117-1.767-11.61-2.4-2.416-.343-5.133-.46-8.963-.42-5.464.066-10.036.396-20.246 1.344l-.147.013-.407.038c-11.896 1.123-17.591 1.505-24.799 1.419-4.723-.068-8.012-.287-11.623-.943l-.084-.009c-.927-.1-1.44-.168-2.277-.337l-.11-.021-.04-.006c-.7-.103-1.076-.164-1.696-.296a18.877 18.877 0 01-1.89-.504 870.608 870.608 0 00-1.379-.337 102.91 102.91 0 01-2.428-.626c-10.242-2.817-19.16-7.998-26.424-15.517-12.084-12.508-18.61-27.735-19.167-45.049-.197-6.38.505-12.752 2.043-19.119 1.685-7.048 4.32-13.816 7.868-20.359 5.268-9.71 12.17-18.395 20.64-26.202 6.021-5.55 12.641-10.458 19.833-14.745 4.862-2.903 9.69-6.397 14.702-10.59 5.115-4.286 9.837-8.734 17.253-16.105zm115.909 195.04l-.01-.003a3.817 3.817 0 00.01.003zm-.706-.132zm-4.601-.823h-.009a11.22 11.22 0 01.009 0zm-137.704-24.31l.028.005-.028-.005zm-69.896-222.61z" id="prefix__b"/></defs><g fill-rule="nonzero" fill="none"><path d="M-22-19h400v400H-22z"/><g transform="translate(-22 -19)"><use fill="#000" filter="url(#prefix__a)" xlink:href="#prefix__b"/><use fill="#FFF" xlink:href="#prefix__b"/></g><path d="M75.532 323.51c-1.376-.343-2.76-.666-4.13-1.038-7.675-2.112-14.381-5.925-19.922-11.659-9.56-9.894-14.703-21.716-15.148-35.53-.16-5.19.438-10.295 1.656-15.337 1.416-5.92 3.628-11.513 6.525-16.854 4.624-8.525 10.64-15.939 17.755-22.496 5.362-4.943 11.205-9.245 17.465-12.978 5.86-3.498 11.331-7.536 16.561-11.91 6.583-5.517 12.717-11.514 18.797-17.568 5.375-5.352 10.684-10.756 16.288-15.859 4.216-3.85 8.591-7.503 13.316-10.713 5.91-4.009 12.209-7.175 19.244-8.708a43.107 43.107 0 0115.925-.493c6.041.922 11.88 2.567 17.479 5.034 8.567 3.784 15.556 9.52 21.115 17.054 3.8 5.174 6.797 10.796 9.48 16.602 2.848 6.156 5.349 12.457 7.973 18.713 2.96 7.044 6.067 14.012 9.73 20.728a128.727 128.727 0 0012.624 18.965c5.766 7.195 10.646 14.93 14.482 23.328 3.265 7.198 5.645 14.66 6.845 22.482.936 6.092 1.123 12.188.363 18.318-1.148 9.312-4.292 17.856-9.93 25.42-5.22 7.01-11.904 12.2-19.795 15.867-5.8 2.695-11.856 4.452-18.26 4.894a45.403 45.403 0 01-6.811-.01c-.316-.025-.626-.02-.933-.026-.321.114-.622-.066-.936-.082-.259-.01-.507-.173-.777-.054l-5.718-1.008c-.197-.205-.474-.135-.71-.208l-1.206-.213c-4.849-1.018-9.404-2.872-13.93-4.801-7.668-3.28-15.073-7.121-22.67-10.556-6.153-2.775-12.415-5.252-18.893-7.176-4.488-1.335-9.071-2.202-13.68-2.852-3.687-.523-7.424-.6-11.146-.561-7.351.088-14.662.78-21.974 1.458-7.738.73-15.473 1.45-23.247 1.356-3.16-.045-6.314-.16-9.432-.742-.639-.121-1.293-.137-1.939-.267-.817-.192-1.656-.189-2.436-.52zM265.44 37.004c10.065 3.052 16.996 9.678 21.54 19.002 3.114 6.393 4.58 13.206 4.985 20.285.338 6.094-.192 12.127-1.447 18.103-2.308 10.98-6.744 21.013-13.28 30.12-4.527 6.313-9.898 11.777-16.293 16.18-5.695 3.912-11.857 6.753-18.684 7.998-4.795.872-9.568.88-14.314-.25-8.22-1.946-14.684-6.498-19.59-13.322-4.18-5.824-6.57-12.395-7.789-19.418-.85-4.912-1.051-9.855-.734-14.818a70.487 70.487 0 011.348-10.09 79.3 79.3 0 018.271-22.272c4.112-7.456 9.247-14.093 15.65-19.709 5.386-4.724 11.368-8.466 18.167-10.81 4.996-1.726 10.131-2.507 15.423-2.18 2.902.206 4.047.43 6.747 1.181zM21.556 118.343c.717-3.119 1.826-6.11 3.187-9.004 2.637-5.625 6.2-10.547 11.084-14.44 5.458-4.342 11.67-6.678 18.645-6.833 5.663-.12 10.98 1.297 15.998 3.872 5.768 2.965 10.596 7.13 14.655 12.158 6.31 7.79 10.246 16.701 12.337 26.473a64.762 64.762 0 011.401 15.526c-.075 2.538-.342 5.058-.733 7.568-.749 4.764-2.048 9.352-4.033 13.74-2.646 5.853-6.266 10.968-11.31 15.002-5.79 4.63-12.403 6.978-19.817 6.881-5.44-.07-10.536-1.568-15.334-4.112-6.449-3.434-11.638-8.293-15.93-14.156-4.188-5.706-7.204-12.007-9.226-18.78-1.982-6.641-2.958-13.447-2.782-20.395.035-1.228.1-2.45.15-3.672-.031-.568.117-1.118.082-1.683-.02-.238.052-.447.082-.684.008-.296.193-.581.067-.9l.774-4.387c.343-.353.287-.823.393-1.244.08-.316.059-.668.31-.93zm79.776-57.299c1.57-8.701 4.19-16.337 8.428-23.382 3.198-5.328 7.128-10.023 12.112-13.783 5.368-4.06 11.343-6.597 18.098-7.097 6.756-.506 13.027 1.083 18.875 4.451 5.15 2.972 9.393 6.973 12.954 11.708 5.688 7.55 9.21 16.074 11.167 25.278a75.445 75.445 0 011.607 17.745 80.034 80.034 0 01-.916 10.13c-.67 4.23-1.676 8.386-3.105 12.427-2.977 8.446-7.349 16.03-13.861 22.27-4.05 3.869-8.661 6.845-13.994 8.634-5.958 1.997-11.997 2.205-18.071.642-5.493-1.408-10.305-4.138-14.592-7.83-5.593-4.81-9.768-10.705-12.94-17.334-3.759-7.872-5.826-16.208-6.533-24.898a78.115 78.115 0 01.148-14.258c.172-1.783.365-3.574.623-4.703zm244.715 119.75l-.179 1.012c-1.864 8.328-5.498 15.837-10.446 22.737-3.889 5.405-8.472 10.147-13.81 14.126-6.853 5.116-14.392 8.718-22.86 10.185-5.074.879-10.134.86-15.162-.317-7.419-1.745-13.481-5.622-18.08-11.718-3.796-5.038-5.874-10.776-6.728-16.974-.773-5.556-.505-11.095.641-16.582 2.512-12.067 8.282-22.421 16.688-31.346a60.546 60.546 0 019.35-8.103c6.964-4.87 14.535-8.226 23.005-9.39 4.815-.651 9.591-.495 14.299.72 7.19 1.85 13.06 5.739 17.505 11.724 4.01 5.4 6.053 11.557 6.775 18.192.398 3.664.36 7.336-.162 10.993l-.18 1.02a64.294 64.294 0 00-.656 3.72z" fill="#000"/></g></svg>
